X: 1
T: Lilli Burlero   [G]
%T: Hush-a-bye Baby
O: Henry Purcell 1689
B: Barnes p.67
Z: 1997 by John Chambers <jc:trillian.mit.edu>
N: 24-bar duple minor longways English Country Dance
M: 6/8
L: 1/8
K: G
|: "G"G>AG "(Em)"B2B | "Am"A>BA "D7"c3 \
| "G"BdG "Am"c2B | "D7"AGF "G"G3 \
:| "G"g2f g2d | "F"=f2f "C"e2d |
| "G"de^f g2d | "C"e>dB "D"A2d \
| "C"e>dc "G"Bcd | "C"edc "G"Bcd \
| "C"e>[gd]B "Am"c2B | "D7"AGF "G"G3 |]

%%sep 1 1 500


